X:12
T:I'll Give To You A Paper Of Pins
%%score 1 { 2 | 3 }
L:1/8
Q:1/4=120
M:6/8
I:linebreak $
K:G
V:1 treble nm="Violin"
V:2 treble nm="Piano"
V:3 bass 
V:1
D |:"G" G2 G G2 G | BdB G2 G |"D" F2 F F2 F | F2 F D2 D |$"G" G2 G G2 G | BdB G2 G |"D" A2 A FEF | 
w: I'll|give to you a|pa- per of pins, For|that's the way that|love be- gins, I'll|give to you a|pa- per of pins, If|you will mar- * ry|
w: Oh|I will give you a|coach * and six, And|eve- ry horse as|black as pitch, Oh|I will give you a|coach * and six, If|you will mar- * ry|
"G" G2 z z2 D |$"G" G2 G G2 G | BdB G2 G |"D" F2 F F2 F | F2 F D2 D |$"G" G2 G G2 G | BdB G2 G | 
w: me. *|I don't want your|pa- per of pins, If|that's the way that|love be- gins, Oh|I don't want your|pa- per of pins, And|
w: me. Oh,|I don't want your|coach _ and six, *|Coach and six, *|coach and six, Oh|I don't want your|coach * and six, and|
"D" A2 A FEF |"G" G2 z z2 D :| 
w: I won't mar- * ry|you! *|
w: I won't mar- * ry|you! *|
V:2
D |: G2 G GGG | BdB G2 G | FFF FFF | FAF D2 D |$ G2 G GGG | BdB G2 G | A2 A FEF | G2 z z2 D |$ 
G2 G GGG | BdB G2 G | FFF FFF | FAF D2 D |$ G2 G GGG | BdB G2 G | A2 A FEF | G2 z z3 :| 
V:3
z |: G,B,D G,B,D | G,B,D G,B,D | D,A,C D,A,C | D,A,C D,A,C |$ G,B,D G,B,D | G,B,D G,B,D | 
D,A,C D,A,C | [G,B,]2 z z z z |$ G,B,D G,B,D | G,B,D G,B,D | D,A,C D,A,C | D,A,C D,A,C |$ 
G,B,D G,B,D | G,B,D G,B,D | D,A,C D,A,C | [G,B,]2 z z3 :| 



